X: 27025
T: Miss Gordon Of Liverpool
R: jig
M: 6/8
K: Fmajor
|:~F3 FAc|dcA FAF|~E3 GAF|~E3 CDE|
~F3 FAA|cde f2c|dfd ~e3|1 ~f3 fcA:|2 ~f3 efg||
|:~a3 bge|~a3 ~c3|dgg g2f|
[1ede cde|~a3 bge|fcA F2C|~D3 FGE|~F3 Ffg:|
[2 ede ~c3|dBf cAf|cAF ~C3|D2F FGE|FGF ~F3||

